X:1
T:Title
%%score { ( 1 3 ) | ( 2 4 ) }
L:1/8
M:6/8
K:Ab
V:1 treble nm="Grand Piano"
V:3 treble 
V:2 bass 
V:4 bass 
V:1
 z3 z2[Q:1/4=100] [CE] | [Ec]>[EB][EA] [FB][A,FA][A,DF] | %2
 [A,CE][E,A,C][K:treble][A,DF] [A,CE]2 [A,E] | [A,DF]>[A,EG][A,FA] [A,EA][DEG][CEA] | %4
[M:5/8] [EGB]-[EGB]- [EGB]3 |[M:1/8] [EBd] |[M:3/4] [DAc]>[DEB] [CEA][DFB] [DFA][A,DF] | %7
[M:5/8][K:bass] [A,CE][E,A,C][K:treble][DF] [CE]2 |[M:1/8] E |[M:3/4] A<A Ac- c/A/B | %10
[M:5/8] [CA]-[CA]- [CA]3 |[M:1/8] [Ae] |[M:3/4] [Ge]>[GB] [GB][GB] [Ac][Bd] | [Bd]<c c c2 [Bc] | %14
 [Ac]>[Ac] [Ac][FA=d] [EAc][=DAB] |[M:5/8] [Ge-]2 [Ae-] [B,Ge]2 |[M:1/8] [EBd] | %17
[M:3/4] [DAc]>[DEB] [CEA][DFB] [DFA][A,DF] |[M:5/8][K:bass] [A,CE][E,A,C][K:treble][DF] [CE]2 | %19
[M:1/8] E |[M:3/4] A<A Ac- c/A/B |[M:13/8] [CA]-[CA]- [CA]3 z z z z z z z2 |] %22
V:2
 z3 z2 [A,,A,] | [A,,A,]>[B,,G,][C,A,] [D,A,]D,D, | A,,A,,A,, A,,2 C, | D,>D,D, C,B,,A,, | %4
[M:5/8] E,-E,- E,3 |[M:1/8] G, |[M:3/4] A,>A, A,D, D,D, |[M:5/8] A,,A,,[A,,A,] [A,,A,]2 | %8
[M:1/8] [C,A,] |[M:3/4] [F,A,C]<[F,A,C] [F,A,C][E,A,E]- [E,A,E]/[E,F,E]/[E,G,D] | %10
[M:5/8] [A,,A,]-[A,,A,]- [A,,A,]3 |[M:1/8] [A,C] |[M:3/4] [E,B,]>[E,E] [E,E][E,E] [E,E][E,E] | %13
 [A,E]<[A,EA] [A,EA] [A,EA]2 [G,=E] | [F,F]>[F,F] [F,F]B, B,B, |[M:5/8] z DC E,2 |[M:1/8] G, | %17
[M:3/4] A,>A, A,D, D,D, |[M:5/8] A,,A,,[A,,A,] [A,,A,]2 |[M:1/8] [C,A,] | %20
[M:3/4] [F,A,C]<[F,A,C] [F,A,C][E,A,E]- [E,A,E]/[E,F,E]/[E,G,D] | %21
[M:13/8] [A,,A,]-[A,,A,]- [A,,A,]3 z z z z z z z2 |] %22
V:3
 x6 | x6 | x2[K:treble] x4 | x6 |[M:5/8] x5 |[M:1/8] x |[M:3/4] x6 | %7
[M:5/8][K:bass] x2[K:treble] x3 |[M:1/8] x |[M:3/4] x6 |[M:5/8] x5 |[M:1/8] x |[M:3/4] x6 | x6 | %14
 x6 |[M:5/8] E z z z2 |[M:1/8] x |[M:3/4] x6 |[M:5/8][K:bass] x2[K:treble] x3 |[M:1/8] x | %20
[M:3/4] x6 |[M:13/8] x13 |] %22
V:4
 x6 | x6 | x6 | x6 |[M:5/8] x5 |[M:1/8] x |[M:3/4] x6 |[M:5/8] x5 |[M:1/8] x |[M:3/4] x6 | %10
[M:5/8] x5 |[M:1/8] x |[M:3/4] x6 | x6 | x6 |[M:5/8] E,3 z2 |[M:1/8] x |[M:3/4] x6 |[M:5/8] x5 | %19
[M:1/8] x |[M:3/4] x6 |[M:13/8] x13 |] %22

